symbols/web/sentiment_dissatisfied/materialsymbolsrounded/sentiment_dissatisfied_fill1_40px.svg

<svg xmlns="http://www.w3.org/2000/svg" height="40" width="40"><path d="M26 17.958q1 0 1.667-.646.666-.645.666-1.687 0-1-.666-1.667Q27 13.292 26 13.292t-1.667.666q-.666.667-.666 1.667 0 1.042.666 1.687.667.646 1.667.646Zm-12 0q1 0 1.667-.646.666-.645.666-1.687 0-1-.666-1.667Q15 13.292 14 13.292t-1.667.666q-.666.667-.666 1.667 0 1.042.666 1.687.667.646 1.667.646Zm6 18.709q-3.458 0-6.479-1.313-3.021-1.312-5.292-3.583t-3.583-5.292Q3.333 23.458 3.333 20t1.313-6.5q1.312-3.042 3.583-5.292t5.292-3.562Q16.542 3.333 20 3.333t6.5 1.313q3.042 1.312 5.292 3.562t3.562 5.292q1.313 3.042 1.313 6.5t-1.313 6.479q-1.312 3.021-3.562 5.292T26.5 35.354q-3.042 1.313-6.5 1.313Zm-6.75-8.459q.292 0 .583-.166.292-.167.459-.417.958-1.375 2.458-2.104 1.5-.729 3.25-.729t3.25.75q1.5.75 2.5 2.083.167.25.458.417.292.166.542.166.625 0 .917-.541.291-.542-.084-1.125-1.166-1.792-3.187-2.875-2.021-1.084-4.396-1.084t-4.375 1.063q-2 1.062-3.125 2.812-.417.625-.125 1.188.292.562.875.562Z"/></svg>

<svg xmlns="http://www.w3.org/2000/svg" height="40" width="40"><path d="M26 17.958Q27 17.958 27.667 17.312Q28.333 16.667 28.333 15.625Q28.333 14.625 27.667 13.958Q27 13.292 26 13.292Q25 13.292 24.333 13.958Q23.667 14.625 23.667 15.625Q23.667 16.667 24.333 17.312Q25 17.958 26 17.958ZM14 17.958Q15 17.958 15.667 17.312Q16.333 16.667 16.333 15.625Q16.333 14.625 15.667 13.958Q15 13.292 14 13.292Q13 13.292 12.333 13.958Q11.667 14.625 11.667 15.625Q11.667 16.667 12.333 17.312Q13 17.958 14 17.958ZM20 36.667Q16.542 36.667 13.521 35.354Q10.5 34.042 8.229 31.771Q5.958 29.5 4.646 26.479Q3.333 23.458 3.333 20Q3.333 16.542 4.646 13.5Q5.958 10.458 8.229 8.208Q10.5 5.958 13.521 4.646Q16.542 3.333 20 3.333Q23.458 3.333 26.5 4.646Q29.542 5.958 31.792 8.208Q34.042 10.458 35.354 13.5Q36.667 16.542 36.667 20Q36.667 23.458 35.354 26.479Q34.042 29.5 31.792 31.771Q29.542 34.042 26.5 35.354Q23.458 36.667 20 36.667ZM13.25 28.208Q13.542 28.208 13.833 28.042Q14.125 27.875 14.292 27.625Q15.25 26.25 16.75 25.521Q18.25 24.792 20 24.792Q21.75 24.792 23.25 25.542Q24.75 26.292 25.75 27.625Q25.917 27.875 26.208 28.042Q26.5 28.208 26.75 28.208Q27.375 28.208 27.667 27.667Q27.958 27.125 27.583 26.542Q26.417 24.75 24.396 23.667Q22.375 22.583 20 22.583Q17.625 22.583 15.625 23.646Q13.625 24.708 12.5 26.458Q12.083 27.083 12.375 27.646Q12.667 28.208 13.25 28.208Z"/></svg>
